src/asset/cabinet/crypto/bitcoin.svg

<svg width="72" height="72" viewBox="0 0 72 72" fill="none" xmlns="http://www.w3.org/2000/svg">
<g filter="url(#filter0_d)">
<rect x="16" y="16" width="40" height="40" rx="20" fill="url(#paint0_linear)"/>
</g>
<path d="M43.9575 40.6769C44.1176 39.6265 43.8374 38.7161 43.1271 37.9658C42.807 37.6057 42.3968 37.3456 42.0067 37.0154C42.0767 36.9954 42.1267 36.9654 42.1667 36.9554C44.6978 36.4752 45.4781 33.0338 44.2176 31.4131C43.6974 30.7528 43.0771 30.2526 42.3568 29.8624C41.8466 29.5923 41.3364 29.3422 40.7962 29.0821C41.0763 28.1117 41.4965 26.7511 41.8066 25.6707L39.7657 25.0805C39.4356 26.1409 39.0554 27.4714 38.7553 28.4118L37.1146 27.9316C37.4048 26.9612 37.8049 25.6607 38.105 24.6003L36.0542 24C35.7441 25.0805 35.3339 26.421 34.9837 27.3314C33.5832 26.9012 32.2226 26.511 30.842 26.0909C30.6219 26.8412 30.4018 27.5415 30.1917 28.2718C30.4819 28.3818 30.742 28.4519 31.0121 28.5319C31.2722 28.6119 31.5323 28.682 31.7924 28.782C32.4827 29.0421 32.7428 29.5423 32.5427 30.2526C31.6724 33.1838 30.782 36.105 29.8916 39.0263C29.7115 39.6665 29.3714 39.8466 28.7311 39.6665C28.7111 39.6565 28.7111 39.6565 28.7111 39.6565L27.3506 39.2564C26.9604 40.0567 26.6002 40.797 26.2101 41.5773C27.6107 42.0075 28.9412 42.4077 30.3418 42.8379C30.0317 43.8983 29.6315 45.2288 29.3114 46.3293L31.3622 46.9296C31.7024 45.8291 32.0825 44.5286 32.4027 43.4981C32.9829 43.6682 33.5031 43.8383 34.0333 44.0083C33.7332 45.0588 33.3331 46.3393 33.0229 47.3997L35.0738 48C35.4139 46.8995 35.7841 45.609 36.0942 44.6086C36.1642 44.6286 36.2143 44.6186 36.2643 44.6386C37.3047 44.7586 38.3151 44.9687 39.3356 45.0088C40.6761 45.0688 41.8566 44.6486 42.737 43.5682C43.4173 42.7378 43.8074 41.7474 43.9575 40.6769ZM36.4544 30.3727L37.5048 30.6728C38.4052 30.9329 39.2855 31.253 40.0158 31.8633C40.6861 32.4235 40.8762 33.1438 40.6161 33.9041C40.346 34.6945 39.7057 35.1446 38.8153 35.1647C37.935 35.2147 37.0946 35.0246 36.2543 34.7845C35.9041 34.6845 35.564 34.5644 35.2338 34.4644C35.634 33.1138 36.0242 31.7732 36.4544 30.3727ZM37.915 41.8674C36.6444 42.0475 35.4339 41.6974 34.2334 41.3672L34.1634 41.3472C33.8433 41.2572 33.5331 41.1471 33.193 41.0471C33.6532 39.5365 34.1034 38.0459 34.5636 36.5452L35.7741 36.8954C36.9346 37.2355 38.035 37.6157 38.9454 38.386C39.5957 38.9162 39.8758 39.6265 39.6357 40.4869C39.3856 41.3372 38.7653 41.7474 37.915 41.8674Z" fill="white"/>
<defs>
<filter id="filter0_d" x="8" y="12" width="56" height="56" filterUnits="userSpaceOnUse" color-interpolation-filters="sRGB">
<feFlood flood-opacity="0" result="BackgroundImageFix"/>
<feColorMatrix in="SourceAlpha" type="matrix" values="0 0 0 0 0 0 0 0 0 0 0 0 0 0 0 0 0 0 127 0"/>
<feOffset dy="4"/>
<feGaussianBlur stdDeviation="4"/>
<feColorMatrix type="matrix" values="0 0 0 0 0.968627 0 0 0 0 0.694118 0 0 0 0 0.266667 0 0 0 0.3 0"/>
<feBlend mode="normal" in2="BackgroundImageFix" result="effect1_dropShadow"/>
<feBlend mode="normal" in="SourceGraphic" in2="effect1_dropShadow" result="shape"/>
</filter>
<linearGradient id="paint0_linear" x1="56" y1="16" x2="16" y2="56" gradientUnits="userSpaceOnUse">
<stop stop-color="#F7B73B"/>
<stop offset="1" stop-color="#F8A15D"/>
</linearGradient>
</defs>
</svg>

<svg width="72" height="72" fill="none" xmlns="http://www.w3.org/2000/svg"><g filter="url(#filter0_d)"><rect x="16" y="16" width="40" height="40" rx="20" fill="url(#paint0_linear)"/></g><path d="M43.958 40.677c.16-1.05-.12-1.96-.83-2.711-.321-.36-.731-.62-1.121-.95.07-.02.12-.05.16-.06 2.53-.48 3.311-3.922 2.05-5.543a5.89 5.89 0 00-1.86-1.55c-.51-.27-1.02-.52-1.56-.78.28-.971.7-2.332 1.01-3.412l-2.041-.59c-.33 1.06-.71 2.39-1.01 3.33l-1.641-.48c.29-.97.69-2.27.99-3.33L36.055 24c-.31 1.08-.721 2.421-1.071 3.331-1.4-.43-2.761-.82-4.142-1.24-.22.75-.44 1.45-.65 2.18.29.11.55.18.82.26.26.08.52.151.78.251.69.26.95.76.75 1.47-.87 2.932-1.76 5.853-2.65 8.774-.18.64-.52.82-1.16.64l-.02-.01-1.361-.4c-.39.8-.75 1.541-1.14 2.321 1.4.43 2.73.83 4.13 1.26-.31 1.061-.71 2.392-1.03 3.492l2.051.6c.34-1.1.72-2.4 1.04-3.43.58.17 1.101.34 1.631.51-.3 1.05-.7 2.33-1.01 3.39l2.05.601c.34-1.1.711-2.391 1.021-3.391.07.02.12.01.17.03 1.04.12 2.051.33 3.072.37 1.34.06 2.52-.36 3.401-1.44.68-.831 1.07-1.822 1.22-2.892zm-7.504-10.304l1.05.3c.901.26 1.782.58 2.512 1.19.67.56.86 1.28.6 2.041-.27.79-.91 1.24-1.8 1.26-.881.05-1.721-.14-2.562-.38-.35-.1-.69-.22-1.02-.32.4-1.35.79-2.69 1.22-4.091zm1.461 11.494c-1.27.18-2.481-.17-3.682-.5l-.07-.02c-.32-.09-.63-.2-.97-.3.46-1.51.91-3.001 1.37-4.502l1.211.35c1.16.34 2.261.72 3.171 1.491.65.53.93 1.24.69 2.1-.25.851-.87 1.261-1.72 1.381z" fill="#fff"/><defs><linearGradient id="paint0_linear" x1="56" y1="16" x2="16" y2="56" gradientUnits="userSpaceOnUse"><stop stop-color="#F7B73B"/><stop offset="1" stop-color="#F8A15D"/></linearGradient><filter id="filter0_d" x="8" y="12" width="56" height="56" filterUnits="userSpaceOnUse" color-interpolation-filters="sRGB"><feFlood flood-opacity="0" result="BackgroundImageFix"/><feColorMatrix in="SourceAlpha" values="0 0 0 0 0 0 0 0 0 0 0 0 0 0 0 0 0 0 127 0"/><feOffset dy="4"/><feGaussianBlur stdDeviation="4"/><feColorMatrix values="0 0 0 0 0.968627 0 0 0 0 0.694118 0 0 0 0 0.266667 0 0 0 0.3 0"/><feBlend in2="BackgroundImageFix" result="effect1_dropShadow"/><feBlend in="SourceGraphic" in2="effect1_dropShadow" result="shape"/></filter></defs></svg>
